assets/bonusesBg2.svg

<svg width="570" height="178" viewBox="0 0 570 178" fill="none" xmlns="http://www.w3.org/2000/svg">
<g clip-path="url(#clip0)">
<rect width="570" height="178" fill="#001E20"/>
<mask id="mask0" mask-type="alpha" maskUnits="userSpaceOnUse" x="0" y="0" width="570" height="178">
<rect width="570" height="178" fill="#FFC856"/>
</mask>
<g mask="url(#mask0)">
<g style="mix-blend-mode:multiply" opacity="0.2">
<path d="M242.5 143L0 178H293L242.5 143Z" fill="#001E20"/>
</g>
</g>
<mask id="mask1" mask-type="alpha" maskUnits="userSpaceOnUse" x="0" y="0" width="570" height="178">
<rect width="570" height="178" fill="#FFC856"/>
</mask>
<g mask="url(#mask1)">
<g style="mix-blend-mode:screen" opacity="0.31">
<path d="M33 178L3.05772e-05 126L0 178H33Z" fill="#001E20"/>
</g>
<g style="mix-blend-mode:screen" opacity="0.17">
<path d="M20.5 28.5L68 0H0.5L20.5 28.5Z" fill="#001E20"/>
</g>
</g>
<g style="mix-blend-mode:screen" opacity="0.3">
<mask id="mask2" mask-type="alpha" maskUnits="userSpaceOnUse" x="0" y="0" width="570" height="178">
<rect width="570" height="178" fill="#FFC856"/>
</mask>
<g mask="url(#mask2)">
<path d="M513.273 56.7077L530.216 49.1224L541.743 82.441L530.448 87.4979L513.273 56.7077ZM543.977 102.575C541.487 103.689 539.12 104.02 536.875 103.565C534.671 103.037 533.17 101.884 532.375 100.107C531.579 98.3301 531.74 96.4901 532.856 94.587C533.951 92.6372 535.774 91.0913 538.325 89.9494C540.876 88.8075 543.243 88.4774 545.427 88.9591C547.59 89.3941 549.069 90.5 549.865 92.2769C550.66 94.0538 550.49 95.9542 549.355 97.978C548.26 99.9278 546.467 101.46 543.977 102.575Z" fill="white"/>
<path d="M131.496 135.148L141.265 140.684L129.162 158.242L122.65 154.551L131.496 135.148ZM120.153 166.546C118.718 165.733 117.709 164.698 117.126 163.441C116.593 162.177 116.617 161.033 117.197 160.009C117.778 158.984 118.732 158.403 120.059 158.265C121.402 158.1 122.808 158.434 124.279 159.267C125.749 160.101 126.759 161.136 127.307 162.373C127.87 163.582 127.861 164.7 127.281 165.724C126.7 166.748 125.713 167.347 124.321 167.519C122.978 167.684 121.589 167.36 120.153 166.546Z" fill="white"/>
<path opacity="0.3" d="M386.152 203.13C388.679 195.057 392.557 188.941 397.786 184.783C403.17 180.673 410.358 176.53 419.349 172.356C425.94 169.305 430.887 166.592 434.192 164.217C437.701 161.736 440.087 158.477 441.35 154.441C443.147 148.697 442.223 143.465 438.577 138.745C435.136 133.918 429.604 130.312 421.983 127.927C414.673 125.639 407.654 125.147 400.928 126.451C394.405 127.648 388.35 130.355 382.761 134.571L359.705 109.204C369.347 101.313 380.54 96.3782 393.283 94.4007C406.182 92.472 420.253 93.8927 435.496 98.6629C453.383 104.261 466.502 112.542 474.853 123.508C483.36 134.522 485.5 146.782 481.273 160.288C479.282 166.653 476.444 171.901 472.76 176.032C469.232 180.212 465.378 183.522 461.199 185.964C457.223 188.299 452.145 190.886 445.963 193.724C438.604 197.046 433.045 200.078 429.283 202.821C425.57 205.409 422.936 209.187 421.382 214.155L386.152 203.13ZM385.592 267.127C379.215 265.131 374.481 261.434 371.389 256.035C368.501 250.529 367.98 244.826 369.826 238.927C371.672 233.028 375.303 228.795 380.717 226.228C386.179 223.506 392.177 223.167 398.71 225.212C405.242 227.256 409.977 230.954 412.913 236.304C415.898 241.5 416.467 247.047 414.621 252.946C412.775 258.845 409.018 263.209 403.352 266.038C397.889 268.76 391.969 269.123 385.592 267.127Z" fill="white"/>
<path opacity="0.3" d="M262.946 101.346C261.374 97.5868 260.908 94.1301 261.546 90.9758C262.257 87.7911 263.622 84.0355 265.642 79.709C267.126 76.541 268.108 74.007 268.59 72.107C269.115 70.1044 268.984 68.1633 268.198 66.2837C267.08 63.6089 265.117 61.9667 262.309 61.357C259.544 60.6447 256.387 61.0304 252.838 62.5141C249.434 63.9373 246.694 65.932 244.618 68.4982C242.585 70.9618 241.192 73.8372 240.439 77.1244L224.075 74.9212C225.182 69.0228 227.779 63.7335 231.863 59.0535C236.02 54.3431 241.648 50.5042 248.746 47.5368C257.075 44.0545 264.479 43.0399 270.958 44.4929C277.509 45.9155 282.099 49.7716 284.728 56.0609C285.967 59.0248 286.548 61.8393 286.471 64.5042C286.467 67.1389 286.072 69.5543 285.289 71.7503C284.547 73.8437 283.477 76.3718 282.078 79.3347C280.395 82.8407 279.286 85.6824 278.75 87.8598C278.183 89.965 278.384 92.1742 279.351 94.4876L262.946 101.346ZM282.581 125.112C279.612 126.353 276.72 126.458 273.906 125.426C271.135 124.292 269.175 122.351 268.026 119.604C266.878 116.857 266.904 114.171 268.104 111.546C269.273 108.849 271.379 106.865 274.421 105.593C277.463 104.321 280.355 104.216 283.096 105.278C285.808 106.268 287.737 108.137 288.886 110.884C290.034 113.631 290.003 116.404 288.791 119.204C287.621 121.901 285.551 123.87 282.581 125.112Z" fill="white"/>
</g>
</g>
</g>
<defs>
<clipPath id="clip0">
<rect width="570" height="178" fill="white"/>
</clipPath>
</defs>
</svg>

<svg xmlns="http://www.w3.org/2000/svg" width="570" height="178" fill="none" xmlns:v="https://vecta.io/nano"><g clip-path="url(#D)"><path fill="#001e20" d="M0 0h570v178H0z"/><mask id="A" mask-type="alpha" maskUnits="userSpaceOnUse" x="0" y="0" width="570" height="178"><path fill="#ffc856" d="M0 0h570v178H0z"/></mask><g mask="url(#A)"><g style="mix-blend-mode:multiply" opacity=".2"><path d="M242.5 143L0 178h293l-50.5-35z" fill="#001e20"/></g></g><mask id="B" mask-type="alpha" maskUnits="userSpaceOnUse" x="0" y="0" width="570" height="178"><path fill="#ffc856" d="M0 0h570v178H0z"/></mask><g mask="url(#B)"><g style="mix-blend-mode:screen" opacity=".3"><path d="M33 178L0 126v52h33z" fill="#001e20"/></g><g style="mix-blend-mode:screen" opacity=".17"><path d="M20.5 28.5L68 0H.5l20 28.5z" fill="#001e20"/></g></g><g style="mix-blend-mode:screen" opacity=".3"><mask id="C" mask-type="alpha" maskUnits="userSpaceOnUse" x="0" y="0" width="570" height="178"><path fill="#ffc856" d="M0 0h570v178H0z"/></mask><g mask="url(#C)" fill="#fff"><path d="M513.273 56.708l16.943-7.585 11.527 33.32-11.295 5.057-17.175-30.8zm30.704 45.867c-2.5 1.114-4.857 1.445-7.102 1-2.204-.528-3.705-1.68-4.5-3.458s-.635-3.617.48-5.52c1.095-1.95 2.918-3.496 5.47-4.638s4.918-1.472 7.102-1c2.163.435 3.642 1.54 4.438 3.318s.625 3.677-.5 5.7c-1.095 1.95-2.888 3.482-5.378 4.597zm-412.48 32.573l9.77 5.536-12.103 17.558-6.512-3.7 8.846-19.403zm-11.343 31.398c-1.435-.813-2.444-1.848-3.027-3.105-.533-1.264-.5-2.408.07-3.432s1.535-1.606 2.862-1.744c1.343-.165 2.75.17 4.22 1.002s2.48 1.87 3.028 3.106c.563 1.2.554 2.327-.026 3.35s-1.568 1.623-2.96 1.795c-1.343.165-2.732-.16-4.168-.973z"/><path opacity=".3" d="M386.152 203.13c2.527-8.073 6.405-14.2 11.634-18.347 5.384-4.1 12.572-8.253 21.563-12.427 6.6-3.05 11.538-5.764 14.843-8.14 3.5-2.48 5.895-5.74 7.158-9.776 1.797-5.744.873-10.976-2.773-15.696-3.44-4.827-8.973-8.433-16.594-10.818-7.3-2.288-14.33-2.78-21.055-1.476-6.523 1.197-12.578 3.904-18.167 8.12l-23.056-25.367c9.642-7.9 20.835-12.826 33.578-14.803 12.9-1.93 26.97-.508 42.213 4.262 17.887 5.598 31.006 13.88 39.357 24.845 8.507 11.014 10.647 23.274 6.42 36.78-2 6.365-4.83 11.613-8.513 15.744-3.528 4.18-7.382 7.5-11.56 9.932-3.976 2.335-9.054 4.922-15.236 7.76-7.36 3.322-12.918 6.354-16.68 9.097-3.713 2.588-6.347 6.366-7.9 11.334l-35.23-11.025zm-.56 63.997c-6.377-1.996-11.1-5.693-14.203-11.092-2.888-5.506-3.4-11.2-1.563-17.108s5.477-10.132 10.9-12.7c5.462-2.722 11.46-3.06 17.993-1.016s11.267 5.742 14.203 11.092c2.985 5.196 3.554 10.743 1.708 16.642s-5.603 10.263-11.27 13.092c-5.463 2.722-11.383 3.085-17.76 1.1zm-122.646-165.78c-1.572-3.76-2.038-7.216-1.4-10.37.7-3.185 2.076-6.94 4.096-11.267 1.484-3.168 2.466-5.702 2.948-7.602a8.87 8.87 0 0 0-.392-5.823c-1.118-2.675-3.08-4.317-5.9-4.927-2.765-.712-5.922-.327-9.47 1.157-3.404 1.423-6.144 3.418-8.22 5.984-2.033 2.464-3.426 5.34-4.18 8.626l-16.364-2.203c1.107-5.898 3.704-11.188 7.788-15.868 4.157-4.7 9.785-8.55 16.883-11.517 8.33-3.482 15.733-4.497 22.212-3.044 6.55 1.423 11.14 5.28 13.77 11.568 1.24 2.964 1.82 5.778 1.743 8.443-.004 2.635-.4 5.05-1.182 7.246-.742 2.093-1.812 4.62-3.2 7.584-1.683 3.506-2.792 6.348-3.328 8.525-.567 2.105-.366 4.314.6 6.628l-16.405 6.858zm19.635 23.766c-2.97 1.24-5.86 1.346-8.675.314-2.77-1.134-4.73-3.075-5.88-5.822s-1.122-5.433.078-8.058c1.17-2.697 3.275-4.68 6.317-5.953s5.934-1.377 8.675-.315c2.712 1 4.64 2.86 5.8 5.606s1.117 5.52-.095 8.32c-1.17 2.697-3.24 4.666-6.2 5.908z"/></g></g></g><defs><clipPath id="D"><path fill="#fff" d="M0 0h570v178H0z"/></clipPath></defs></svg>
